X: 25359
T: Maple Leaf, The
R: reel
M: 4/4
K: Edorian
E2EF GEE2|B2AB AGED|E2EF GFGA|ABeB AGED|
[B,E]3F GE (3EEE|B2AB AGE2|ABeB dBGA|B2AB AGED:|
Beed efge|Beef edBA|Beed efg2|a2eg fedA|
Beed efge|Beef edB2|a2eg fedA|B2AB AGED:|

